glitch-avatars-svg/base_avatar/Avatar.fla/placeholder symbols 3/Avatar_sideLegLowerOffside3.svg

<?xml version="1.0" encoding="UTF-8" standalone="no"?>
<!-- Generator: flash2svg, http://dissentgraphics.com/tools/flash2svg -->

<svg
   xmlns:dc="http://purl.org/dc/elements/1.1/"
   xmlns:cc="http://creativecommons.org/ns#"
   xmlns:rdf="http://www.w3.org/1999/02/22-rdf-syntax-ns#"
   xmlns:svg="http://www.w3.org/2000/svg"
   xmlns="http://www.w3.org/2000/svg"
   xmlns:sodipodi="http://sodipodi.sourceforge.net/DTD/sodipodi-0.dtd"
   xmlns:inkscape="http://www.inkscape.org/namespaces/inkscape"
   id="Avatar"
   image-rendering="auto"
   version="1.1"
   x="0px"
   y="0px"
   width="8.9875002"
   height="11.7"
   viewBox="0 0 8.9875002 11.7"
   inkscape:version="0.48.4 r9939"
   sodipodi:docname="Avatar_sideLegLowerOffside3.svg">
  <metadata
     id="metadata3185">
    <rdf:RDF>
      <cc:Work
         rdf:about="">
        <dc:format>image/svg+xml</dc:format>
        <dc:type
           rdf:resource="http://purl.org/dc/dcmitype/StillImage" />
      </cc:Work>
    </rdf:RDF>
  </metadata>
  <sodipodi:namedview
     pagecolor="#ffffff"
     bordercolor="#666666"
     borderopacity="1"
     objecttolerance="10"
     gridtolerance="10"
     guidetolerance="10"
     inkscape:pageopacity="0"
     inkscape:pageshadow="2"
     inkscape:window-width="640"
     inkscape:window-height="480"
     id="namedview3183"
     showgrid="false"
     fit-margin-top="0"
     fit-margin-left="0"
     fit-margin-right="0"
     fit-margin-bottom="0"
     inkscape:zoom="1.8730159"
     inkscape:cx="39.6875"
     inkscape:cy="-38.357671"
     inkscape:window-x="0"
     inkscape:window-y="0"
     inkscape:window-maximized="0"
     inkscape:current-layer="Avatar" />
  <defs
     id="defs3167">
    <radialGradient
       gradientUnits="userSpaceOnUse"
       color-interpolation="sRGB"
       r="7.6103191"
       cx="0.85000002"
       cy="2.1500001"
       fx="0.85000002"
       fy="2.1500001"
       gradientTransform="matrix(-0.70080566,0.71382141,0.71382141,0.70080566,-0.099,0.05)"
       id="radialGradient">
      <stop
         stop-color="#FFF"
         stop-opacity="0.7058823529411765"
         offset="0"
         id="stop3170" />
      <stop
         stop-color="#FFF"
         stop-opacity="0.2980392156862745"
         offset="1"
         id="stop3172" />
    </radialGradient>
    <radialGradient
       gradientUnits="userSpaceOnUse"
       color-interpolation="sRGB"
       r="7.6129999"
       cx="0.801"
       cy="2.201"
       fx="0.801"
       fy="2.201"
       gradientTransform="matrix(-0.701,0.714,0.714,0.701,0,0.05)"
       id="radialGradient1">
      <stop
         stop-color="#FFF"
         stop-opacity="0.7058823529411765"
         offset="0"
         id="stop3175" />
      <stop
         stop-color="#FFF"
         stop-opacity="0.2980392156862745"
         offset="1"
         id="stop3177" />
    </radialGradient>
  </defs>
  <g
     id="sideLegLowerOffside4"
     overflow="visible"
     style="overflow:visible"
     transform="translate(5.6875,3.55)">
    <g
       id="sideLegLowerOffside3_0">
      <g
         id="element">
        <path
           id="path"
           d="M 2.55,-1.95 C 2.35,-2.15 2,-2.45 1.55,-2.8 0.9,-3.25 0,-3.5 -1.15,-3.55 l -0.025,0 -1.575,0.1 c -0.3,0.05 -0.55,0.15 -0.75,0.3 -0.55,0.25 -0.95,0.6 -1.2,0.95 l -0.025,0 0,0.05 -0.15,0.05 0.05,0.05 0.025,0 c -0.25,0.25 -0.45,0.75 -0.55,1.45 -0.25,0.45 -0.35,1 -0.3,1.65 -0.05,0.05 -0.05,0.15 0,0.3 -0.05,0.55 0.05,1.15 0.2,1.8 0.05,0.45 0.15,1.15 0.2,2.05 L -5.275,5.175 -5.25,6.25 c 0.15,1 1.1,1.65 2.85,1.9 L -2.425,8.125 0,8.075 0,8.1 C 0.65,7.95 1.2,7.75 1.65,7.6 l 0,-0.025 0,0.05 0.05,-0.05 0,0.025 C 2.2,7.35 2.55,7.05 2.7,6.75 l -0.025,0 0.525,-1.075 0.1,-0.05 -0.1,0 0,0.025 C 3.25,5.5 3.25,5.1 3.3,4.5 L 3.3,4.475 3.1,2.5 c 0,-1.75 0,-2.85 -0.05,-3.35 -0.1,-0.5 -0.25,-0.85 -0.5,-1.1 z m -2.1,0.175 -2.025,0.025 -0.6,0.1 0.025,0 c -0.05,-0.35 0.1,-0.7 0.4,-1.05 l -0.025,-0.025 0.55,-0.05 0.025,0.025 c 0.45,-0.1 0.9,-0.1 1.35,0 l -0.025,-0.025 0.325,1 z m 0,-0.925 c 0.55,0.05 0.95,0.2 1.2,0.4 0.05,0.05 0.2,0.35 0.4,0.85 C 1.2,-1.7 0.7,-1.8 0.65,-1.75 0.55,-2.3 0.5,-2.6 0.45,-2.7 z m 0.025,2.5 -0.1,0.425 -2.9,0.025 0.025,0 c 0,-0.55 0.1,-1.1 0.25,-1.6 0.45,-0.15 0.85,-0.25 1.3,-0.2 0.3,-0.05 0.75,-0.05 1.4,0.05 l -0.025,0 0.05,1.3 z M 2.15,-2 c 0.25,0.25 0.45,0.5 0.6,0.8 l -0.025,-0.025 -0.45,-0.15 -0.15,-0.65 z m 0.025,0.775 0.15,1.525 -1.7,-0.125 0.075,-1.65 0,0.025 c 0.55,0.05 1.05,0.1 1.5,0.25 z m 0.65,0.45 0.05,1.2 -0.35,-0.075 -0.15,-1.325 0.45,0.2 z m 0,3.825 -0.35,0.1 -0.05,-0.05 0.1,-2.55 0.35,0.1 0.05,2.25 -0.1,0.15 z M 2.225,0.5 2.275,3.1 2.225,3.2 0.575,3.5 0.675,0.375 2.225,0.5 z M 2,5.925 0.575,6.2 0.525,3.65 0.55,3.65 C 1.1,3.6 1.7,3.5 2.25,3.4 L 2.225,3.4 2,5.925 z M 2.375,3.4 2.925,3.3 2.95,3.3 C 2.85,3.75 2.85,4.15 3,4.5 3,5.05 3,5.4 2.95,5.65 L 2.925,5.625 2.325,5.85 2.35,5.85 C 2.4,5.35 2.45,4.9 2.4,4.55 l -0.025,0 0,-1.15 z m -2,0.15 -0.825,0.025 0,0.025 c -0.8,0 -1.55,0 -2.3,0 l 0,-0.025 0.175,-3.075 3.05,-0.075 -0.1,3.125 z m 2.55,2.275 -0.4,0.975 0.025,0 C 2.35,6.95 2.1,7.15 1.85,7.35 2,7 2.15,6.6 2.35,6.05 l -0.025,0 0.6,-0.225 z M 0.55,6.4 C 0.9,6.3 1.35,6.2 2,6.15 1.9,6.8 1.75,7.25 1.55,7.5 1.2,7.55 0.75,7.65 0.1,7.8 0.25,7.5 0.4,7.05 0.55,6.4 z M 0.375,6.225 -0.65,6.35 c -0.55,0.05 -1.2,0 -1.95,-0.1 l -0.025,0 -0.175,-2.525 0,0.025 c 0.75,0.05 1.5,0.05 2.3,0 l 0,-0.025 0.875,-0.025 0,2.525 z m -0.55,-9.425 0.05,0.15 -1.05,0 -0.3,0.075 -0.05,0 0.025,0.025 c 0.05,-0.2 0.15,-0.3 0.4,-0.3 l -0.025,0 0.95,0.05 z m -1.35,-0.15 -0.35,0.425 -1.875,0.4 0.35,-0.45 0,0.025 c 0.5,-0.2 1,-0.3 1.55,-0.3 l -0.025,0 0.35,-0.1 z m -2.775,1.3 -0.2,1 -0.625,0.25 0.025,0 C -5,-1.3 -4.8,-1.7 -4.55,-2 l 0.25,-0.05 z m 0.35,-0.15 c 0.35,-0.15 1,-0.3 1.85,-0.45 -0.25,0.4 -0.4,0.75 -0.35,1.05 -0.75,0.05 -1.35,0.25 -1.8,0.5 0,-0.45 0.1,-0.8 0.3,-1.1 z m 1.45,0.85 c -0.15,0.4 -0.25,0.95 -0.2,1.65 l -0.025,0 -1.725,0.25 0.1,-1.4 c 1.1,-0.35 1.7,-0.5 1.85,-0.5 z m -2.15,0.55 c -0.05,0.15 -0.05,0.55 0,1.25 L -4.7,0.55 -5.3,0.8 -5.225,-0.55 -4.65,-0.8 z m 1.9,1.35 C -2.85,1 -2.9,2 -2.95,3.6 l 0,-0.025 L -4.425,3.4 -4.45,0.75 -2.775,0.525 z m -2.3,5.125 0.4,0.2 0,0.025 C -4.5,6.55 -4.3,7.05 -4,7.4 -4.6,7.05 -4.95,6.6 -5,6.15 L -5.05,5.675 z m 0,-0.2 -0.075,-2.05 0.5,0.1 -0.025,2.15 -0.4,-0.2 z m 2.1,-1.75 0.025,2.45 L -2.9,6.2 C -3.55,6.05 -4.05,5.9 -4.45,5.75 l 0,-0.025 0.025,-2.15 L -4.4,3.6 c 0.3,0.05 0.8,0.1 1.45,0.15 z M -4.65,3.3 C -4.95,3.25 -5.1,3.2 -5.15,3.2 L -5.175,3.175 -5.3,0.975 -4.7,0.85 -4.675,3.275 z m 4,3.2 L 0.375,6.425 0.4,6.45 C 0.15,7.1 0,7.55 -0.1,7.9 l 0,-0.025 -2.125,0.05 0.025,0.025 c -0.25,-0.5 -0.45,-1 -0.5,-1.5 0.75,0.05 1.45,0.05 2.05,0.05 z M -2.4,7.9 C -2.95,7.8 -3.4,7.7 -3.7,7.6 -4.05,7.15 -4.25,6.65 -4.3,6.05 c 0.3,0.1 0.8,0.2 1.45,0.35 0,0.6 0.15,1.1 0.45,1.5 z"
           inkscape:connector-curvature="0"
           style="fill:url(#radialGradient1)" />
      </g>
    </g>
  </g>
</svg>

<?xml version="1.0" encoding="utf-8"?>
<!-- Generator: flash2svg, http://dissentgraphics.com/tools/flash2svg -->
<svg xmlns:xlink="http://www.w3.org/1999/xlink" id="Avatar" image-rendering="auto" baseProfile="basic" version="1.1" x="0px" y="0px" width="68" height="126" xmlns="http://www.w3.org/2000/svg" viewBox="0 0 68 126">
  <defs>
    <radialGradient gradientUnits="userSpaceOnUse" color-interpolation="sRGB" r="7.610318930017929" cx="0.85" cy="2.15" fx="0.8500000000000001" fy="2.15" gradientTransform="matrix(-0.7008056640625 0.7138214111328125 0.7138214111328125 0.7008056640625 -0.099 0.05)" id="radialGradient">
      <stop stop-color="#FFF" stop-opacity="0.7058823529411765" offset="0"/>
      <stop stop-color="#FFF" stop-opacity="0.2980392156862745" offset="1"/>
    </radialGradient>
    <radialGradient gradientUnits="userSpaceOnUse" color-interpolation="sRGB" r="7.613" cx="0.801" cy="2.201" fx="0.801" fy="2.201" gradientTransform="matrix(-0.701 0.714 0.714 0.701 0 0.05)" id="radialGradient1">
      <stop stop-color="#FFF" stop-opacity="0.7058823529411765" offset="0"/>
      <stop stop-color="#FFF" stop-opacity="0.2980392156862745" offset="1"/>
    </radialGradient>
  </defs>
  <g id="sideLegLowerOffside4" overflow="visible">
    <g id="sideLegLowerOffside3_0">
      <g id="element">
        <path id="path" fill="url(#radialGradient1)" d="M2.55,-1.95 C2.35,-2.15 2,-2.45 1.55,-2.8 0.9,-3.25 0,-3.5 -1.15,-3.55 L-1.175,-3.55 L-2.75,-3.45 C-3.05,-3.4 -3.3,-3.3 -3.5,-3.15 -4.05,-2.9 -4.45,-2.55 -4.7,-2.2 L-4.725,-2.2 L-4.725,-2.15 -4.875,-2.1 -4.825,-2.05 L-4.8,-2.05 C-5.05,-1.8 -5.25,-1.3 -5.35,-0.6 -5.6,-0.15 -5.7,0.4 -5.65,1.05 -5.7,1.1 -5.7,1.2 -5.65,1.35 -5.7,1.9 -5.6,2.5 -5.45,3.15 -5.4,3.6 -5.3,4.3 -5.25,5.2 L-5.275,5.175 L-5.25,6.25 C-5.1,7.25 -4.15,7.9 -2.4,8.15 L-2.425,8.125 L0,8.075 L0,8.1 C0.65,7.95 1.2,7.75 1.65,7.6 L1.65,7.575 L1.65,7.625 1.7,7.575 L1.7,7.6 C2.2,7.35 2.55,7.05 2.7,6.75 L2.675,6.75 L3.2,5.675 3.3,5.625 3.2,5.625 L3.2,5.65 C3.25,5.5 3.25,5.1 3.3,4.5 L3.3,4.475 L3.1,2.5 C3.1,0.75 3.1,-0.35 3.05,-0.85 2.95,-1.35 2.8,-1.7 2.55,-1.95z M0.45,-1.775 L-1.575,-1.75 -2.175,-1.65 L-2.15,-1.65 C-2.2,-2 -2.05,-2.35 -1.75,-2.7 L-1.775,-2.725 L-1.225,-2.775 L-1.2,-2.75 C-0.75,-2.85 -0.3,-2.85 0.15,-2.75 L0.125,-2.775 L0.45,-1.775z M0.45,-2.7 C1,-2.65 1.4,-2.5 1.65,-2.3 1.7,-2.25 1.85,-1.95 2.05,-1.45 1.2,-1.7 0.7,-1.8 0.65,-1.75 0.55,-2.3 0.5,-2.6 0.45,-2.7z M0.475,-0.2 L0.375,0.225 -2.525,0.25 L-2.5,0.25 C-2.5,-0.3 -2.4,-0.85 -2.25,-1.35 -1.8,-1.5 -1.4,-1.6 -0.95,-1.55 -0.65,-1.6 -0.2,-1.6 0.45,-1.5 L0.425,-1.5 L0.475,-0.2z M2.15,-2 C2.4,-1.75 2.6,-1.5 2.75,-1.2 L2.725,-1.225 L2.275,-1.375 2.125,-2.025z M2.175,-1.225 L2.325,0.3 0.625,0.175 0.7,-1.475 L0.7,-1.45 C1.25,-1.4 1.75,-1.35 2.2,-1.2z M2.825,-0.775 L2.875,0.425 2.525,0.35 2.375,-0.975 2.825,-0.775z M2.825,3.05 L2.475,3.15 2.425,3.1 2.525,0.55 2.875,0.65 2.925,2.9 2.825,3.05z M2.225,0.5 L2.275,3.1 2.225,3.2 0.575,3.5 0.675,0.375 2.225,0.5z M2,5.925 L0.575,6.2 0.525,3.65 L0.55,3.65 C1.1,3.6 1.7,3.5 2.25,3.4 L2.225,3.4 L2,5.925z M2.375,3.4 L2.925,3.3 L2.95,3.3 C2.85,3.75 2.85,4.15 3,4.5 3,5.05 3,5.4 2.95,5.65 L2.925,5.625 L2.325,5.85 L2.35,5.85 C2.4,5.35 2.45,4.9 2.4,4.55 L2.375,4.55 L2.375,3.4z M0.375,3.55 L-0.45,3.575 L-0.45,3.6 C-1.25,3.6 -2,3.6 -2.75,3.6 L-2.75,3.575 L-2.575,0.5 0.475,0.425 0.375,3.55z M2.925,5.825 L2.525,6.8 L2.55,6.8 C2.35,6.95 2.1,7.15 1.85,7.35 2,7 2.15,6.6 2.35,6.05 L2.325,6.05 L2.925,5.825z M0.55,6.4 C0.9,6.3 1.35,6.2 2,6.15 1.9,6.8 1.75,7.25 1.55,7.5 1.2,7.55 0.75,7.65 0.1,7.8 0.25,7.5 0.4,7.05 0.55,6.4z M0.375,6.225 L-0.65,6.35 C-1.2,6.4 -1.85,6.35 -2.6,6.25 L-2.625,6.25 L-2.8,3.725 L-2.8,3.75 C-2.05,3.8 -1.3,3.8 -0.5,3.75 L-0.5,3.725 L0.375,3.7 0.375,6.225z M-0.175,-3.2 L-0.125,-3.05 -1.175,-3.05 -1.475,-2.975 -1.525,-2.975 L-1.5,-2.95 C-1.45,-3.15 -1.35,-3.25 -1.1,-3.25 L-1.125,-3.25 L-0.175,-3.2z M-1.525,-3.35 L-1.875,-2.925 -3.75,-2.525 -3.4,-2.975 L-3.4,-2.95 C-2.9,-3.15 -2.4,-3.25 -1.85,-3.25 L-1.875,-3.25 L-1.525,-3.35z M-4.3,-2.05 L-4.5,-1.05 -5.125,-0.8 L-5.1,-0.8 C-5,-1.3 -4.8,-1.7 -4.55,-2 L-4.3,-2.05z M-3.95,-2.2 C-3.6,-2.35 -2.95,-2.5 -2.1,-2.65 -2.35,-2.25 -2.5,-1.9 -2.45,-1.6 -3.2,-1.55 -3.8,-1.35 -4.25,-1.1 -4.25,-1.55 -4.15,-1.9 -3.95,-2.2z M-2.5,-1.35 C-2.65,-0.95 -2.75,-0.4 -2.7,0.3 L-2.725,0.3 L-4.45,0.55 -4.35,-0.85 C-3.25,-1.2 -2.65,-1.35 -2.5,-1.35z M-4.65,-0.8 C-4.7,-0.65 -4.7,-0.25 -4.65,0.45 L-4.7,0.55 -5.3,0.8 -5.225,-0.55 -4.65,-0.8z M-2.75,0.55 C-2.85,1 -2.9,2 -2.95,3.6 L-2.95,3.575 L-4.425,3.4 -4.45,0.75 -2.775,0.525z M-5.05,5.675 L-4.65,5.875 L-4.65,5.9 C-4.5,6.55 -4.3,7.05 -4,7.4 -4.6,7.05 -4.95,6.6 -5,6.15 L-5.05,5.675z M-5.05,5.475 L-5.125,3.425 -4.625,3.525 -4.65,5.675 -5.05,5.475z M-2.95,3.725 L-2.925,6.175 L-2.9,6.2 C-3.55,6.05 -4.05,5.9 -4.45,5.75 L-4.45,5.725 L-4.425,3.575 L-4.4,3.6 C-4.1,3.65 -3.6,3.7 -2.95,3.75z M-4.65,3.3 C-4.95,3.25 -5.1,3.2 -5.15,3.2 L-5.175,3.175 L-5.3,0.975 -4.7,0.85 -4.675,3.275z M-0.65,6.5 L0.375,6.425 L0.4,6.45 C0.15,7.1 0,7.55 -0.1,7.9 L-0.1,7.875 L-2.225,7.925 L-2.2,7.95 C-2.45,7.45 -2.65,6.95 -2.7,6.45 -1.95,6.5 -1.25,6.5 -0.65,6.5z M-2.4,7.9 C-2.95,7.8 -3.4,7.7 -3.7,7.6 -4.05,7.15 -4.25,6.65 -4.3,6.05 -4,6.15 -3.5,6.25 -2.85,6.4 -2.85,7 -2.7,7.5 -2.4,7.9z"/>
      </g>
    </g>
  </g>
</svg>
